img/icons/fb.svg

<svg width="24" height="25" viewBox="0 0 24 25" fill="none" xmlns="http://www.w3.org/2000/svg">
<path d="M16.1709 13.4389L16.6684 10.1628H13.5561V8.03771C13.5561 7.14121 13.9901 6.26684 15.3841 6.26684H16.8V3.47771C16.8 3.47771 15.5156 3.25636 14.2882 3.25636C11.7238 3.25636 10.0493 4.82579 10.0493 7.66583V10.1628H7.19995V13.4389H10.0493V21.3591C10.6213 21.4499 11.2065 21.4964 11.8027 21.4964C12.3989 21.4964 12.9841 21.4499 13.5561 21.3591V13.4389H16.1709Z" fill="white"/>
</svg>

<svg width="24" height="25" fill="none" xmlns="http://www.w3.org/2000/svg"><path d="M16.17 13.439l.498-3.276h-3.112V8.038c0-.897.434-1.771 1.828-1.771H16.8v-2.79s-1.284-.22-2.512-.22c-2.564 0-4.239 1.569-4.239 4.409v2.497H7.2v3.276h2.85v7.92a11.174 11.174 0 003.506 0v-7.92h2.615z" fill="#fff"/></svg>
